;Generated by Cura LulzBot Edition GCodeWriter Version: 3.6.23
;FLAVOR:Marlin
;TIME:5107
;Filament used: 2.57789m
;Layer height: 0.25
;Generated with Cura_SteamEngine 3.6.23
M82 ;absolute extrusion mode
;This G-Code has been generated specifically for the LulzBot TAZ 6 with standard extruder
M73 P0 ; clear GLCD progress bar
M75 ; start GLCD timer
G26 ; clear potential 'probe fail' condition
M107 ; disable fans
M420 S0 ; disable previous leveling matrix
G90 ; absolute positioning
M82 ; set extruder to absolute mode
G92 E0 ; set extruder position to 0
M140 S60.0 ; start bed heating up
M109 R140 ; soften filament before homing Z
G28 ; Home all axis
G1 E-30 F100 ; retract filament
M109 R140 ; wait for extruder to reach wiping temp
G1 X-15 Y100 F3000 ; move above wiper pad
G1 Z1 ; push nozzle into wiper
G1 X-17 Y95 F1000 ; slow wipe
G1 X-17 Y90 F1000 ; slow wipe
G1 X-17 Y85 F1000 ; slow wipe
G1 X-15 Y90 F1000 ; slow wipe
G1 X-17 Y80 F1000 ; slow wipe
G1 X-15 Y95 F1000 ; slow wipe
G1 X-17 Y75 F2000 ; fast wipe
G1 X-15 Y65 F2000 ; fast wipe
G1 X-17 Y70 F2000 ; fast wipe
G1 X-15 Y60 F2000 ; fast wipe
G1 X-17 Y55 F2000 ; fast wipe
G1 X-15 Y50 F2000 ; fast wipe
G1 X-17 Y40 F2000 ; fast wipe
G1 X-15 Y45 F2000 ; fast wipe
G1 X-17 Y35 F2000 ; fast wipe
G1 X-15 Y40 F2000 ; fast wipe
G1 X-17 Y70 F2000 ; fast wipe
G1 X-15 Y30 Z2 F2000 ; fast wipe
G1 X-17 Y35 F2000 ; fast wipe
G1 X-15 Y25 F2000 ; fast wipe
G1 X-17 Y30 F2000 ; fast wipe
G1 X-15 Y25 Z1.5 F1000 ; slow wipe
G1 X-17 Y23 F1000 ; slow wipe
G1 Z10 ; raise extruder
M109 R140 ; wait for extruder to reach probe temp
G1 X-9 Y-9 ; move above first probe point
M204 S100 ; set probing acceleration
G29 ; start auto-leveling sequence
M420 S1 ; activate bed level matrix
M425 Z			     ; use measured Z backlash for compensation
M425 Z F0		     ; turn off measured Z backlash compensation. (if activated in the quality settings, this command will automatically be ignored)
M204 S500 ; restore standard acceleration
G1 X0 Y0 Z15 F5000 ; move up off last probe point
G4 S1 ; pause
M400 ; wait for moves to finish
M117 Heating... ; progress indicator message on LCD
M109 R200 ; wait for extruder to reach printing temp
M190 R60.0 ; wait for bed to reach printing temp
G1 Z2 E0 F75 ; prime tiny bit of filament into the nozzle
M117 TAZ 6 Printing... ; progress indicator message on LCD

M221 S100 T0
G92 E0
G1 F600 E-1
;LAYER_COUNT:56
;LAYER:0
M107
G0 F2625 X96.516 Y92.662 Z0.425
;TYPE:SKIRT
G1 F600 E0
G1 F900 X96.662 Y92.516 E0.00688
G1 X97.125 Y92.11 E0.02739
G1 X97.637 Y91.767 E0.04792
G1 X98.189 Y91.493 E0.06845
G1 X98.771 Y91.292 E0.08896
G1 X99.375 Y91.169 E0.10949
G1 X100.021 Y91.125 E0.13106
G1 X175.979 Y91.125 E2.66125
G1 X176.594 Y91.165 E2.68177
G1 X177.198 Y91.284 E2.70228
G1 X177.782 Y91.481 E2.72281
G1 X178.336 Y91.751 E2.74334
G1 X178.85 Y92.091 E2.76387
G1 X179.338 Y92.516 E2.78542
G1 X179.484 Y92.662 E2.7923
G1 X179.89 Y93.125 E2.81281
G1 X180.233 Y93.637 E2.83334
G1 X180.507 Y94.189 E2.85387
G1 X180.708 Y94.771 E2.87438
G1 X180.831 Y95.375 E2.89491
G1 X180.875 Y96.021 E2.91648
G1 X180.875 Y171.979 E5.44667
G1 X180.835 Y172.594 E5.4672
G1 X180.716 Y173.198 E5.48771
G1 X180.519 Y173.782 E5.50824
G1 X180.249 Y174.336 E5.52876
G1 X179.909 Y174.85 E5.54929
G1 X179.484 Y175.338 E5.57085
G1 X179.338 Y175.484 E5.57773
G1 X178.875 Y175.89 E5.59824
G1 X178.363 Y176.233 E5.61877
G1 X177.811 Y176.507 E5.6393
G1 X177.229 Y176.708 E5.65981
G1 X176.625 Y176.831 E5.68034
G1 X175.979 Y176.875 E5.70191
G1 X100.021 Y176.875 E8.23209
G1 X99.406 Y176.835 E8.25262
G1 X98.802 Y176.716 E8.27313
G1 X98.218 Y176.519 E8.29366
G1 X97.664 Y176.249 E8.31419
G1 X97.15 Y175.909 E8.33472
G1 X96.662 Y175.484 E8.35627
G1 X96.516 Y175.338 E8.36315
G1 X96.11 Y174.875 E8.38366
G1 X95.767 Y174.363 E8.40419
G1 X95.493 Y173.811 E8.42472
G1 X95.292 Y173.229 E8.44523
G1 X95.169 Y172.625 E8.46576
G1 X95.125 Y171.979 E8.48733
G1 X95.125 Y96.021 E11.01752
G1 X95.165 Y95.406 E11.03805
G1 X95.284 Y94.802 E11.05855
G1 X95.481 Y94.218 E11.07909
G1 X95.751 Y93.664 E11.09961
G1 X96.091 Y93.15 E11.12014
G1 X96.516 Y92.662 E11.1417
G0 F2625 X96.87 Y93.016
G1 F900 X97.016 Y92.87 E11.14858
G1 X97.455 Y92.487 E11.16798
G1 X97.943 Y92.168 E11.1874
G1 X98.469 Y91.918 E11.2068
G1 X99.025 Y91.743 E11.22622
G1 X99.6 Y91.646 E11.24564
G1 X100.021 Y91.625 E11.25968
G1 X175.979 Y91.625 E13.78987
G1 X176.56 Y91.665 E13.80927
G1 X177.131 Y91.784 E13.8287
G1 X177.68 Y91.98 E13.84812
G1 X178.196 Y92.249 E13.8675
G1 X178.672 Y92.587 E13.88695
G1 X178.984 Y92.87 E13.90098
G1 X179.13 Y93.016 E13.90786
G1 X179.513 Y93.455 E13.92726
G1 X179.832 Y93.943 E13.94668
G1 X180.082 Y94.469 E13.96608
G1 X180.257 Y95.025 E13.9855
G1 X180.354 Y95.6 E14.00492
G1 X180.375 Y96.021 E14.01896
G1 X180.375 Y171.979 E16.54915
G1 X180.335 Y172.56 E16.56855
G1 X180.216 Y173.131 E16.58798
G1 X180.02 Y173.68 E16.6074
G1 X179.751 Y174.196 E16.62678
G1 X179.413 Y174.672 E16.64623
G1 X179.13 Y174.984 E16.66026
G1 X178.984 Y175.13 E16.66714
G1 X178.545 Y175.513 E16.68654
G1 X178.057 Y175.832 E16.70596
G1 X177.531 Y176.082 E16.72536
G1 X176.975 Y176.257 E16.74478
G1 X176.4 Y176.354 E16.7642
G1 X175.979 Y176.375 E16.77825
G1 X100.021 Y176.375 E19.30843
G1 X99.44 Y176.335 E19.32783
G1 X98.869 Y176.216 E19.34726
G1 X98.32 Y176.02 E19.36668
G1 X97.804 Y175.751 E19.38606
G1 X97.328 Y175.413 E19.40551
G1 X97.016 Y175.13 E19.41954
G1 X96.87 Y174.984 E19.42642
G1 X96.487 Y174.545 E19.44583
G1 X96.168 Y174.057 E19.46525
G1 X95.918 Y173.531 E19.48465
G1 X95.743 Y172.975 E19.50406
G1 X95.646 Y172.4 E19.52349
G1 X95.625 Y171.979 E19.53753
G1 X95.625 Y96.021 E22.06772
G1 X95.665 Y95.44 E22.08711
G1 X95.784 Y94.869 E22.10654
G1 X95.98 Y94.32 E22.12596
G1 X96.249 Y93.804 E22.14534
G1 X96.587 Y93.328 E22.16479
G1 X96.87 Y93.016 E22.17882
G0 F2625 X97.223 Y93.369
G1 F900 X97.369 Y93.223 E22.1857
G1 X97.784 Y92.866 E22.20394
G1 X98.246 Y92.572 E22.22218
G1 X98.745 Y92.349 E22.24038
G1 X99.272 Y92.201 E22.25862
G1 X100.021 Y92.125 E22.28369
G1 X175.979 Y92.125 E24.81388
G1 X176.525 Y92.165 E24.83212
G1 X177.059 Y92.284 E24.85034
G1 X177.57 Y92.479 E24.86856
G1 X178.048 Y92.747 E24.88682
G1 X178.631 Y93.223 E24.91189
G1 X178.777 Y93.369 E24.91876
G1 X179.134 Y93.784 E24.937
G1 X179.428 Y94.246 E24.95524
G1 X179.651 Y94.745 E24.97345
G1 X179.799 Y95.272 E24.99168
G1 X179.875 Y96.021 E25.01676
G1 X179.875 Y171.979 E27.54695
G1 X179.835 Y172.525 E27.56518
G1 X179.716 Y173.059 E27.58341
G1 X179.521 Y173.57 E27.60162
G1 X179.253 Y174.048 E27.61988
G1 X178.777 Y174.631 E27.64495
G1 X178.631 Y174.777 E27.65183
G1 X178.216 Y175.134 E27.67006
G1 X177.754 Y175.428 E27.6883
G1 X177.255 Y175.651 E27.70651
G1 X176.728 Y175.799 E27.72474
G1 X175.979 Y175.875 E27.74982
G1 X100.021 Y175.875 E30.28001
G1 X99.475 Y175.835 E30.29825
G1 X98.941 Y175.716 E30.31647
G1 X98.43 Y175.521 E30.33469
G1 X97.952 Y175.253 E30.35294
G1 X97.369 Y174.777 E30.37801
G1 X97.223 Y174.631 E30.38489
G1 X96.866 Y174.216 E30.40313
G1 X96.572 Y173.754 E30.42137
G1 X96.349 Y173.255 E30.43957
G1 X96.201 Y172.728 E30.45781
G1 X96.125 Y171.979 E30.48288
G1 X96.125 Y96.021 E33.01307
G1 X96.165 Y95.475 E33.03131
G1 X96.284 Y94.941 E33.04953
G1 X96.479 Y94.43 E33.06775
G1 X96.747 Y93.952 E33.08601
G1 X97.223 Y93.369 E33.11108
G0 F2625 X97.577 Y93.723
G1 F900 X97.723 Y93.577 E33.11795
G1 X98.11 Y93.246 E33.13492
G1 X98.545 Y92.98 E33.1519
G1 X99.015 Y92.785 E33.16885
G1 X99.511 Y92.665 E33.18585
G1 X100.021 Y92.625 E33.20289
G1 X175.979 Y92.625 E35.73308
G1 X176.487 Y92.665 E35.75005
G1 X176.982 Y92.784 E35.76701
G1 X177.453 Y92.979 E35.78399
G1 X177.888 Y93.245 E35.80098
G1 X178.277 Y93.577 E35.81801
G1 X178.423 Y93.723 E35.82489
G1 X178.754 Y94.11 E35.84185
G1 X179.02 Y94.545 E35.85884
G1 X179.215 Y95.015 E35.87579
G1 X179.335 Y95.511 E35.89279
G1 X179.375 Y96.021 E35.90983
G1 X179.375 Y171.979 E38.44001
G1 X179.335 Y172.487 E38.45699
G1 X179.216 Y172.982 E38.47395
G1 X179.021 Y173.453 E38.49093
G1 X178.755 Y173.888 E38.50791
G1 X178.423 Y174.277 E38.52495
G1 X178.277 Y174.423 E38.53183
G1 X177.89 Y174.754 E38.54879
G1 X177.455 Y175.02 E38.56577
G1 X176.985 Y175.215 E38.58272
G1 X176.489 Y175.335 E38.59972
G1 X175.979 Y175.375 E38.61676
G1 X100.021 Y175.375 E41.14695
G1 X99.513 Y175.335 E41.16392
G1 X99.018 Y175.216 E41.18088
G1 X98.547 Y175.021 E41.19786
G1 X98.112 Y174.755 E41.21485
G1 X97.723 Y174.423 E41.23188
G1 X97.577 Y174.277 E41.23876
G1 X97.246 Y173.89 E41.25572
G1 X96.98 Y173.455 E41.27271
G1 X96.785 Y172.985 E41.28966
G1 X96.665 Y172.489 E41.30666
G1 X96.625 Y171.979 E41.3237
G1 X96.625 Y96.021 E43.85389
G1 X96.665 Y95.513 E43.87086
G1 X96.784 Y95.018 E43.88782
G1 X96.979 Y94.547 E43.9048
G1 X97.245 Y94.112 E43.92178
G1 X97.577 Y93.723 E43.93882
G0 F2625 X97.93 Y94.076
G1 F900 X98.076 Y93.93 E43.9457
G1 X98.435 Y93.629 E43.9613
G1 X98.839 Y93.392 E43.9769
G1 X99.278 Y93.227 E43.99253
G1 X99.738 Y93.14 E44.00812
G1 X100.021 Y93.125 E44.01756
G1 X175.979 Y93.125 E46.54775
G1 X176.446 Y93.165 E46.56336
G1 X176.899 Y93.284 E46.57896
G1 X177.326 Y93.477 E46.59457
G1 X177.713 Y93.741 E46.61018
G1 X177.924 Y93.93 E46.61961
G1 X178.07 Y94.076 E46.62649
G1 X178.371 Y94.435 E46.6421
G1 X178.608 Y94.839 E46.6577
G1 X178.773 Y95.278 E46.67332
G1 X178.86 Y95.738 E46.68891
G1 X178.875 Y96.021 E46.69836
G1 X178.875 Y171.979 E49.22854
G1 X178.835 Y172.446 E49.24416
G1 X178.716 Y172.899 E49.25976
G1 X178.523 Y173.326 E49.27537
G1 X178.259 Y173.713 E49.29097
G1 X178.07 Y173.924 E49.30041
G1 X177.924 Y174.07 E49.30729
G1 X177.565 Y174.371 E49.32289
G1 X177.161 Y174.608 E49.33849
G1 X176.722 Y174.773 E49.35411
G1 X176.262 Y174.86 E49.36971
G1 X175.979 Y174.875 E49.37915
G1 X100.021 Y174.875 E51.90934
G1 X99.554 Y174.835 E51.92495
G1 X99.101 Y174.716 E51.94055
G1 X98.674 Y174.523 E51.95616
G1 X98.287 Y174.259 E51.97177
G1 X98.076 Y174.07 E51.9812
G1 X97.93 Y173.924 E51.98808
G1 X97.629 Y173.565 E52.00369
G1 X97.392 Y173.161 E52.01929
G1 X97.227 Y172.722 E52.03491
G1 X97.14 Y172.262 E52.0505
G1 X97.125 Y171.979 E52.05994
G1 X97.125 Y96.021 E54.59013
G1 X97.165 Y95.554 E54.60575
G1 X97.284 Y95.101 E54.62135
G1 X97.477 Y94.674 E54.63696
G1 X97.741 Y94.287 E54.65256
G1 X97.93 Y94.076 E54.662
G0 F2625 X98.284 Y94.43
G1 F900 X98.43 Y94.284 E54.66887
G1 X98.757 Y94.014 E54.683
G1 X99.128 Y93.81 E54.6971
G1 X99.531 Y93.679 E54.71122
G1 X100.021 Y93.625 E54.72764
G1 X175.979 Y93.625 E57.25783
G1 X176.401 Y93.665 E57.27195
G1 X176.808 Y93.783 E57.28606
G1 X177.185 Y93.976 E57.30017
G1 X177.57 Y94.284 E57.31659
G1 X177.716 Y94.43 E57.32347
G1 X177.986 Y94.757 E57.3376
G1 X178.19 Y95.128 E57.3517
G1 X178.321 Y95.531 E57.36582
G1 X178.375 Y96.021 E57.38224
G1 X178.375 Y171.979 E59.91243
G1 X178.335 Y172.401 E59.92655
G1 X178.217 Y172.808 E59.94066
G1 X178.024 Y173.185 E59.95477
G1 X177.716 Y173.57 E59.97119
G1 X177.57 Y173.716 E59.97807
G1 X177.243 Y173.986 E59.9922
G1 X176.872 Y174.19 E60.0063
G1 X176.469 Y174.321 E60.02042
G1 X175.979 Y174.375 E60.03684
G1 X100.021 Y174.375 E62.56702
G1 X99.599 Y174.335 E62.58114
G1 X99.192 Y174.217 E62.59526
G1 X98.815 Y174.024 E62.60937
G1 X98.43 Y173.716 E62.62579
G1 X98.284 Y173.57 E62.63267
G1 X98.014 Y173.243 E62.64679
G1 X97.81 Y172.872 E62.6609
G1 X97.679 Y172.469 E62.67501
G1 X97.625 Y171.979 E62.69143
G1 X97.625 Y96.021 E65.22162
G1 X97.665 Y95.599 E65.23574
G1 X97.783 Y95.192 E65.24986
G1 X97.976 Y94.815 E65.26397
G1 X98.284 Y94.43 E65.28039
G0 F2625 X98.638 Y94.784
G1 F900 X98.784 Y94.638 E65.28727
G1 X99.074 Y94.403 E65.2997
G1 X99.408 Y94.236 E65.31214
G1 X99.77 Y94.143 E65.32459
G1 X100.021 Y94.125 E65.33297
G1 X175.979 Y94.125 E67.86316
G1 X176.35 Y94.165 E67.87559
G1 X176.705 Y94.283 E67.88805
G1 X177.027 Y94.473 E67.90051
G1 X177.216 Y94.638 E67.90886
G1 X177.362 Y94.784 E67.91574
G1 X177.597 Y95.074 E67.92817
G1 X177.764 Y95.408 E67.94061
G1 X177.857 Y95.77 E67.95306
G1 X177.875 Y96.021 E67.96145
G1 X177.875 Y171.979 E70.49163
G1 X177.835 Y172.35 E70.50406
G1 X177.717 Y172.705 E70.51652
G1 X177.527 Y173.027 E70.52898
G1 X177.362 Y173.216 E70.53734
G1 X177.216 Y173.362 E70.54421
G1 X176.926 Y173.597 E70.55665
G1 X176.592 Y173.764 E70.56909
G1 X176.23 Y173.857 E70.58154
G1 X175.979 Y173.875 E70.58992
G1 X100.021 Y173.875 E73.12011
G1 X99.65 Y173.835 E73.13254
G1 X99.295 Y173.717 E73.145
G1 X98.973 Y173.527 E73.15745
G1 X98.784 Y173.362 E73.16581
G1 X98.638 Y173.216 E73.17269
G1 X98.403 Y172.926 E73.18512
G1 X98.236 Y172.592 E73.19756
G1 X98.143 Y172.23 E73.21001
G1 X98.125 Y171.979 E73.21839
G1 X98.125 Y96.021 E75.74858
G1 X98.165 Y95.65 E75.76101
G1 X98.283 Y95.295 E75.77347
G1 X98.473 Y94.973 E75.78592
G1 X98.638 Y94.784 E75.79428
G0 F2625 X98.991 Y95.137
G1 F900 X99.137 Y94.991 E75.80116
G1 X99.387 Y94.798 E75.81168
G1 X99.677 Y94.673 E75.8222
G1 X100.021 Y94.625 E75.83377
G1 X175.979 Y94.625 E78.36396
G1 X176.292 Y94.665 E78.37447
G1 X176.585 Y94.782 E78.38498
G1 X176.863 Y94.991 E78.39656
G1 X177.009 Y95.137 E78.40344
G1 X177.202 Y95.387 E78.41396
G1 X177.327 Y95.677 E78.42448
G1 X177.375 Y96.021 E78.43605
G1 X177.375 Y171.979 E80.96624
G1 X177.335 Y172.292 E80.97675
G1 X177.218 Y172.585 E80.98726
G1 X177.009 Y172.863 E80.99884
G1 X176.863 Y173.009 E81.00572
G1 X176.613 Y173.202 E81.01624
G1 X176.323 Y173.327 E81.02676
G1 X175.979 Y173.375 E81.03833
G1 X100.021 Y173.375 E83.56852
G1 X99.708 Y173.335 E83.57903
G1 X99.415 Y173.218 E83.58954
G1 X99.137 Y173.009 E83.60113
G1 X98.991 Y172.863 E83.608
G1 X98.798 Y172.613 E83.61852
G1 X98.673 Y172.323 E83.62904
G1 X98.625 Y171.979 E83.64061
G1 X98.625 Y96.021 E86.1708
G1 X98.665 Y95.708 E86.18131
G1 X98.782 Y95.415 E86.19182
G1 X98.991 Y95.137 E86.20341
G0 F2625 X99.345 Y95.491
G1 F900 X99.491 Y95.345 E86.21028
G1 X99.689 Y95.202 E86.21842
G1 X100.021 Y95.125 E86.22977
G1 X175.979 Y95.125 E88.75996
G1 X176.22 Y95.165 E88.7681
G1 X176.509 Y95.345 E88.77944
G1 X176.655 Y95.491 E88.78632
G1 X176.798 Y95.689 E88.79445
G1 X176.875 Y96.021 E88.80581
G1 X176.875 Y171.979 E91.33599
G1 X176.835 Y172.22 E91.34413
G1 X176.655 Y172.509 E91.35547
G1 X176.509 Y172.655 E91.36235
G1 X176.311 Y172.798 E91.37049
G1 X175.979 Y172.875 E91.38184
G1 X100.021 Y172.875 E93.91203
G1 X99.78 Y172.835 E93.92016
G1 X99.491 Y172.655 E93.93151
G1 X99.345 Y172.509 E93.93838
G1 X99.202 Y172.311 E93.94652
G1 X99.125 Y171.979 E93.95787
G1 X99.125 Y96.021 E96.48806
G1 X99.165 Y95.78 E96.4962
G1 X99.345 Y95.491 E96.50754
G0 F2625 X99.698 Y95.844
G1 F900 X99.844 Y95.698 E96.51442
G1 X100.021 Y95.625 E96.52079
G1 X175.979 Y95.625 E99.05098
G1 X176.156 Y95.698 E99.05736
G1 X176.302 Y95.844 E99.06424
G1 X176.375 Y96.021 E99.07062
G1 X176.375 Y171.979 E101.6008
G1 X176.302 Y172.156 E101.60718
G1 X176.156 Y172.302 E101.61406
G1 X175.979 Y172.375 E101.62044
G1 X100.021 Y172.375 E104.15063
G1 X99.844 Y172.302 E104.157
G1 X99.698 Y172.156 E104.16388
G1 X99.625 Y171.979 E104.17026
G1 X99.625 Y96.021 E106.70045
G1 X99.698 Y95.844 E106.70683
G1 F600 E105.70683
;MESH:
G0 F2625 X100.639 Y96.639
G0 X105.859 Y98.694
G0 X106.531 Y99.149
G0 X107.011 Y99.798
G0 X107.248 Y100.571
G0 X107.23 Y101.028
G0 X107.127 Y101.839
G0 X106.593 Y101.566
;TYPE:WALL-OUTER
G1 F600 E106.70683
G1 F900 X106.684 Y101.265 E106.7173
G1 X106.725 Y100.954 E106.72775
G1 X106.711 Y100.64 E106.73822
G1 X106.645 Y100.333 E106.74868
G1 X106.528 Y100.042 E106.75913
G1 X106.363 Y99.775 E106.76958
G1 X106.156 Y99.539 E106.78004
G1 X105.912 Y99.341 E106.79051
G1 X105.637 Y99.188 E106.80099
G1 X105.341 Y99.084 E106.81144
G1 X105.038 Y99.032 E106.82168
G1 X104.875 Y99.025 E106.82711
G1 X104.712 Y99.032 E106.83255
G1 X104.409 Y99.084 E106.84279
G1 X104.113 Y99.188 E106.85324
G1 X103.838 Y99.341 E106.86372
G1 X103.594 Y99.539 E106.87419
G1 X103.387 Y99.775 E106.88465
G1 X103.222 Y100.042 E106.8951
G1 X103.105 Y100.333 E106.90555
G1 X103.039 Y100.64 E106.91601
G1 X103.025 Y100.954 E106.92648
G1 X103.066 Y101.265 E106.93693
G1 X103.157 Y101.566 E106.9474
G1 X103.3 Y101.846 E106.95788
G1 X103.486 Y102.098 E106.96831
G1 X103.712 Y102.315 E106.97875
G1 X103.973 Y102.491 E106.98923
G1 X104.258 Y102.621 E106.99967
G1 X104.563 Y102.699 E107.01015
