;Generated by Cura LulzBot Edition GCodeWriter Version: 3.6.23
;FLAVOR:Marlin
;TIME:14040
;Filament used: 7.85267m
;Layer height: 0.25
;Generated with Cura_SteamEngine 3.6.23
M82 ;absolute extrusion mode
;This G-Code has been generated specifically for the LulzBot TAZ 6 with standard extruder
M73 P0 ; clear GLCD progress bar
M75 ; start GLCD timer
G26 ; clear potential 'probe fail' condition
M107 ; disable fans
M420 S0 ; disable previous leveling matrix
G90 ; absolute positioning
M82 ; set extruder to absolute mode
G92 E0 ; set extruder position to 0
M140 S60.0 ; start bed heating up
M109 R140 ; soften filament before homing Z
G28 ; Home all axis
G1 E-30 F100 ; retract filament
M109 R140 ; wait for extruder to reach wiping temp
G1 X-15 Y100 F3000 ; move above wiper pad
G1 Z1 ; push nozzle into wiper
G1 X-17 Y95 F1000 ; slow wipe
G1 X-17 Y90 F1000 ; slow wipe
G1 X-17 Y85 F1000 ; slow wipe
G1 X-15 Y90 F1000 ; slow wipe
G1 X-17 Y80 F1000 ; slow wipe
G1 X-15 Y95 F1000 ; slow wipe
G1 X-17 Y75 F2000 ; fast wipe
G1 X-15 Y65 F2000 ; fast wipe
G1 X-17 Y70 F2000 ; fast wipe
G1 X-15 Y60 F2000 ; fast wipe
G1 X-17 Y55 F2000 ; fast wipe
G1 X-15 Y50 F2000 ; fast wipe
G1 X-17 Y40 F2000 ; fast wipe
G1 X-15 Y45 F2000 ; fast wipe
G1 X-17 Y35 F2000 ; fast wipe
G1 X-15 Y40 F2000 ; fast wipe
G1 X-17 Y70 F2000 ; fast wipe
G1 X-15 Y30 Z2 F2000 ; fast wipe
G1 X-17 Y35 F2000 ; fast wipe
G1 X-15 Y25 F2000 ; fast wipe
G1 X-17 Y30 F2000 ; fast wipe
G1 X-15 Y25 Z1.5 F1000 ; slow wipe
G1 X-17 Y23 F1000 ; slow wipe
G1 Z10 ; raise extruder
M109 R140 ; wait for extruder to reach probe temp
G1 X-9 Y-9 ; move above first probe point
M204 S100 ; set probing acceleration
G29 ; start auto-leveling sequence
M420 S1 ; activate bed level matrix
M425 Z			     ; use measured Z backlash for compensation
M425 Z F0		     ; turn off measured Z backlash compensation. (if activated in the quality settings, this command will automatically be ignored)
M204 S500 ; restore standard acceleration
G1 X0 Y0 Z15 F5000 ; move up off last probe point
G4 S1 ; pause
M400 ; wait for moves to finish
M117 Heating... ; progress indicator message on LCD
M109 R200 ; wait for extruder to reach printing temp
M190 R60.0 ; wait for bed to reach printing temp
G1 Z2 E0 F75 ; prime tiny bit of filament into the nozzle
M117 TAZ 6 Printing... ; progress indicator message on LCD

M221 S100 T0
G92 E0
G1 F600 E-1
;LAYER_COUNT:203
;LAYER:0
M107
G0 F2625 X97.918 Y81.435 Z0.425
;TYPE:SKIRT
G1 F600 E0
G1 F900 X98.171 Y81.171 E0.01218
G1 X98.69 Y80.685 E0.03586
G1 X99.088 Y80.367 E0.05283
G1 X99.489 Y80.135 E0.06827
G1 X99.941 Y79.915 E0.08501
G1 X100.415 Y79.728 E0.10198
G1 X100.883 Y79.623 E0.11796
G1 X101.599 Y79.516 E0.14208
G1 X102.083 Y79.48 E0.15824
G1 X104.348 Y79.483 E0.23369
G1 X104.943 Y79.539 E0.2536
G1 X105.652 Y79.672 E0.27763
G1 X106.144 Y79.805 E0.2946
G1 X106.587 Y80.001 E0.31074
G1 X107.052 Y80.25 E0.32831
G1 X107.481 Y80.525 E0.34529
G1 X107.841 Y80.842 E0.36126
G1 X108.291 Y81.302 E0.3827
G1 X108.618 Y81.693 E0.39968
G1 X108.905 Y82.183 E0.41859
G1 X109.198 Y82.801 E0.44138
G1 X109.379 Y83.277 E0.45834
G1 X109.506 Y84.016 E0.48332
G1 X109.59 Y85.558 E0.53476
G1 X109.595 Y85.724 E0.54029
G1 X109.635 Y97.681 E0.93858
G1 X109.945 Y103.161 E1.12142
G1 X110.562 Y108.592 E1.30349
G1 X111.49 Y114.005 E1.48643
G1 X112.053 Y116.62 E1.57553
G1 X112.709 Y119.299 E1.6674
G1 X114.24 Y124.567 E1.85014
G1 X116.067 Y129.743 E2.03298
G1 X118.171 Y134.774 E2.21463
G1 X120.567 Y139.702 E2.39716
G1 X123.233 Y144.479 E2.57939
G1 X126.17 Y149.105 E2.76191
G1 X129.35 Y153.537 E2.94362
G1 X132.804 Y157.818 E3.12685
G1 X136.476 Y161.878 E3.30919
G1 X138.361 Y163.793 E3.3987
G1 X142.383 Y167.543 E3.58188
G1 X146.591 Y171.045 E3.76424
G1 X150.985 Y174.298 E3.94635
G1 X155.563 Y177.304 E4.12878
G1 X160.31 Y180.048 E4.31142
G1 X165.188 Y182.512 E4.49346
G1 X170.177 Y184.688 E4.67477
G1 X175.367 Y186.61 E4.85912
G1 X179.985 Y188.105 E5.02081
G1 X180.456 Y188.3 E5.03779
G1 X180.895 Y188.568 E5.05492
G1 X181.254 Y188.829 E5.06971
G1 X181.641 Y189.16 E5.08667
G1 X181.919 Y189.477 E5.10071
G1 X182.355 Y190.044 E5.12454
G1 X182.633 Y190.471 E5.14151
G1 X182.784 Y190.788 E5.15321
G1 X182.903 Y191.077 E5.16362
G1 X183.06 Y191.561 E5.18057
G1 X183.118 Y191.873 E5.19114
G1 X183.22 Y192.617 E5.21615
G1 X183.25 Y193.069 E5.23124
G1 X183.242 Y195.368 E5.30782
G1 X183.2 Y195.876 E5.3248
G1 X183.138 Y196.173 E5.33491
G1 X182.925 Y196.994 E5.36316
G1 X182.759 Y197.476 E5.38014
G1 X182.552 Y197.872 E5.39503
G1 X182.384 Y198.147 E5.40576
G1 X182.086 Y198.56 E5.42273
G1 X181.835 Y198.823 E5.43484
G1 X181.313 Y199.313 E5.45869
G1 X180.916 Y199.631 E5.47563
G1 X180.264 Y199.973 E5.50015
G1 X179.493 Y200.272 E5.5277
G1 X179.005 Y200.419 E5.54468
G1 X178.319 Y200.492 E5.56766
G1 X101.898 Y200.513 E8.11327
G1 X101.39 Y200.473 E8.13024
G1 X101.067 Y200.405 E8.14124
G1 X100.261 Y200.192 E8.16901
G1 X99.78 Y200.024 E8.18598
G1 X99.392 Y199.82 E8.20058
G1 X99.123 Y199.655 E8.21109
G1 X98.711 Y199.356 E8.22805
G1 X98.499 Y199.158 E8.23771
G1 X98.048 Y198.697 E8.25919
G1 X97.721 Y198.306 E8.27617
G1 X97.477 Y197.902 E8.29189
G1 X97.214 Y197.387 E8.31116
G1 X97.018 Y196.917 E8.32812
G1 X96.89 Y196.364 E8.34703
G1 X96.782 Y195.601 E8.3727
G1 X96.75 Y195.146 E8.38789
G1 X96.759 Y84.625 E12.06938
G1 X96.799 Y84.117 E12.08636
G1 X96.867 Y83.793 E12.09739
G1 X97.08 Y82.989 E12.12509
G1 X97.249 Y82.508 E12.14207
G1 X97.449 Y82.125 E12.15647
G1 X97.619 Y81.847 E12.16732
G1 X97.918 Y81.435 E12.18428
G1 F600 E11.18428
G0 F2625 X104.751 Y82.089
G0 X105.548 Y82.344
G0 X106.22 Y82.831
G0 X106.712 Y83.497
G0 X106.977 Y84.297
G0 X108.095 Y150.828
;TYPE:SUPPORT
G1 F600 E12.18428
G1 F900 X120.557 Y189.177 E13.52745
G1 X108.412 Y189.177 E13.93201
G1 X108.276 Y189.162 E13.93656
G1 X108.202 Y189.125 E13.93932
G1 X108.147 Y189.07 E13.94191
G1 X108.11 Y188.996 E13.94467
G1 X108.095 Y188.866 E13.94903
G1 X108.095 Y150.828 E15.21609
G1 F600 E14.21609
G0 F2625 X108.355 Y152.354
G1 F600 E15.21609
G1 F900 X108.355 Y188.969 E16.43574
G0 F2625 X108.294 Y188.371
G1 F900 X120.085 Y188.371 E16.82851
G0 F2625 X120.024 Y188.184
G1 F900 X120.024 Y188.977 E16.85492
G1 F600 E15.85492
G0 F2625 X118.357 Y188.977
G1 F600 E16.85492
G1 F900 X118.357 Y183.054 E17.05222
G0 F2625 X118.459 Y183.37
G1 F900 X108.294 Y183.37 E17.39082
G1 F600 E16.39082
G0 F2625 X108.294 Y181.703
G1 F600 E17.39082
G1 F900 X117.918 Y181.703 E17.7114
G1 F600 E16.7114
G0 F2625 X117.376 Y180.036
G1 F600 E17.7114
G1 F900 X108.294 Y180.036 E18.01392
G1 F600 E17.01392
G0 F2625 X108.294 Y178.369
G1 F600 E18.01392
G1 F900 X116.834 Y178.369 E18.29839
G0 F2625 X116.69 Y177.925
G1 F900 X116.69 Y188.977 E18.66654
G1 F600 E17.66654
G0 F2625 X115.023 Y188.977
G1 F600 E18.66654
G1 F900 X115.023 Y172.795 E19.20557
G0 F2625 X115.209 Y173.368
G1 F900 X108.294 Y173.368 E19.43591
G1 F600 E18.43591
G0 F2625 X108.294 Y171.701
G1 F600 E19.43591
G1 F900 X114.667 Y171.701 E19.6482
G1 F600 E18.6482
G0 F2625 X114.125 Y170.034
G1 F600 E19.6482
G1 F900 X108.294 Y170.034 E19.84243
G1 F600 E18.84243
G0 F2625 X108.294 Y168.367
G1 F600 E19.84243
G1 F900 X113.584 Y168.367 E20.01864
G0 F2625 X113.356 Y167.666
G1 F900 X113.356 Y188.977 E20.72852
G1 F600 E19.72852
G0 F2625 X111.689 Y188.977
G1 F600 E20.72852
G1 F900 X111.689 Y162.537 E21.60924
G0 F2625 X111.958 Y163.366
G1 F900 X108.294 Y163.366 E21.73129
G1 F600 E20.73129
G0 F2625 X108.294 Y161.699
G1 F600 E21.73129
G1 F900 X111.416 Y161.699 E21.83529
G1 F600 E20.83529
G0 F2625 X110.875 Y160.032
G1 F600 E21.83529
G1 F900 X108.294 Y160.032 E21.92126
G1 F600 E20.92126
G0 F2625 X108.294 Y158.365
G1 F600 E21.92126
G1 F900 X110.333 Y158.365 E21.98918
G1 F600 E20.98918
G0 F2625 X110.022 Y157.407
G1 F600 E21.98918
G1 F900 X110.022 Y188.977 E23.04079
G1 F600 E22.04079
G0 F2625 X108.294 Y186.704
G1 F600 E23.04079
G1 F900 X119.543 Y186.704 E23.4155
G1 F600 E22.4155
G0 F2625 X119.001 Y185.037
G1 F600 E23.4155
G1 F900 X108.294 Y185.037 E23.77215
G1 F600 E22.77215
G0 F2625 X108.294 Y176.702
G1 F600 E23.77215
G1 F900 X116.292 Y176.702 E24.03857
G1 F600 E23.03857
G0 F2625 X115.751 Y175.035
G1 F600 E24.03857
G1 F900 X108.294 Y175.035 E24.28696
G1 F600 E23.28696
G0 F2625 X108.294 Y166.7
G1 F600 E24.28696
G1 F900 X113.042 Y166.7 E24.44512
G1 F600 E23.44512
G0 F2625 X112.5 Y165.033
G1 F600 E24.44512
G1 F900 X108.294 Y165.033 E24.58522
G1 F600 E23.58522
G0 F2625 X108.294 Y156.698
G1 F600 E24.58522
G1 F900 X109.791 Y156.698 E24.63509
G1 F600 E23.63509
G0 F2625 X109.249 Y155.031
G1 F600 E24.63509
G1 F900 X108.294 Y155.031 E24.6669
G1 F600 E23.6669
G0 F2625 X108.294 Y153.364
G1 F600 E24.6669
G1 F900 X108.708 Y153.364 E24.68069
G1 F600 E23.68069
;MESH:
G0 F2625 X107.078 Y189.342
G0 X105.876 Y190.185
G0 X106.038 Y190.604
G0 X106.118 Y190.546
;TYPE:WALL-INNER
G1 F600 E24.68069
G1 F900 X106.399 Y190.873 E24.69505
G1 X106.726 Y191.154 E24.70942
G1 X107.096 Y191.379 E24.72384
G1 X107.495 Y191.545 E24.73824
G1 X107.915 Y191.645 E24.75262
G1 X108.315 Y191.677 E24.76598
G1 X177.985 Y191.677 E27.08672
G1 X178.198 Y191.694 E27.09383
G1 X178.389 Y191.74 E27.10038
G1 X178.574 Y191.816 E27.10704
G1 X178.734 Y191.915 E27.11331
G1 X178.886 Y192.046 E27.11999
G1 X179.017 Y192.198 E27.12668
G1 X179.116 Y192.358 E27.13294
G1 X179.192 Y192.543 E27.13961
G1 X179.238 Y192.734 E27.14615
G1 X179.255 Y192.947 E27.15327
G1 X179.255 Y195.257 E27.23021
G1 X179.238 Y195.47 E27.23733
G1 X179.192 Y195.661 E27.24388
G1 X179.116 Y195.846 E27.25054
G1 X179.017 Y196.006 E27.25681
G1 X178.886 Y196.158 E27.26349
G1 X178.734 Y196.289 E27.27017
G1 X178.574 Y196.388 E27.27644
G1 X178.389 Y196.464 E27.2831
G1 X178.204 Y196.509 E27.28945
G1 X177.933 Y196.527 E27.29849
G1 X102.015 Y196.527 E29.82735
G1 X101.802 Y196.51 E29.83447
G1 X101.611 Y196.464 E29.84101
G1 X101.426 Y196.388 E29.84767
G1 X101.266 Y196.289 E29.85394
G1 X101.114 Y196.158 E29.86062
G1 X100.983 Y196.006 E29.86731
G1 X100.884 Y195.846 E29.87358
G1 X100.808 Y195.661 E29.88024
G1 X100.762 Y195.47 E29.88678
G1 X100.745 Y195.257 E29.8939
G1 X100.745 Y84.743 E33.57516
G1 X100.762 Y84.53 E33.58228
G1 X100.808 Y84.339 E33.58882
G1 X100.884 Y84.154 E33.59548
G1 X100.983 Y83.994 E33.60175
G1 X101.114 Y83.842 E33.60844
G1 X101.266 Y83.711 E33.61512
G1 X101.426 Y83.612 E33.62139
G1 X101.611 Y83.536 E33.62805
G1 X101.802 Y83.49 E33.63459
G1 X102.015 Y83.473 E33.64171
G1 X104.325 Y83.473 E33.71866
G1 X104.538 Y83.49 E33.72578
G1 X104.729 Y83.536 E33.73232
G1 X104.914 Y83.612 E33.73898
G1 X105.074 Y83.711 E33.74525
G1 X105.226 Y83.842 E33.75193
G1 X105.357 Y83.994 E33.75862
G1 X105.456 Y84.154 E33.76489
G1 X105.532 Y84.34 E33.77158
G1 X105.576 Y84.521 E33.77778
G1 X105.595 Y84.802 E33.78717
G1 X105.595 Y188.957 E37.25661
G1 X105.627 Y189.357 E37.26997
G1 X105.727 Y189.777 E37.28435
G1 X105.893 Y190.176 E37.29875
G1 X106.118 Y190.546 E37.31317
G0 F2625 X107.021 Y190.748
;TYPE:WALL-OUTER
G1 F900 X107.323 Y190.932 E37.32495
G1 X107.65 Y191.068 E37.33675
G1 X107.993 Y191.15 E37.3485
G1 X108.335 Y191.177 E37.35993
G1 X177.998 Y191.177 E39.68043
G1 X178.279 Y191.199 E39.68981
G1 X178.544 Y191.263 E39.6989
G1 X178.803 Y191.37 E39.70823
G1 X179.029 Y191.509 E39.71707
G1 X179.241 Y191.691 E39.72638
G1 X179.423 Y191.903 E39.73568
G1 X179.562 Y192.129 E39.74452
G1 X179.669 Y192.388 E39.75385
G1 X179.733 Y192.653 E39.76294
G1 X179.755 Y192.934 E39.77232
G1 X179.755 Y195.27 E39.85014
G1 X179.733 Y195.551 E39.85953
G1 X179.669 Y195.816 E39.86861
G1 X179.562 Y196.075 E39.87794
G1 X179.423 Y196.301 E39.88678
G1 X179.241 Y196.513 E39.89609
G1 X179.029 Y196.695 E39.90539
G1 X178.803 Y196.834 E39.91423
G1 X178.544 Y196.941 E39.92357
G1 X178.279 Y197.005 E39.93265
G1 X177.951 Y197.027 E39.9436
G1 X102.002 Y197.027 E42.47349
G1 X101.721 Y197.005 E42.48288
G1 X101.456 Y196.941 E42.49196
G1 X101.197 Y196.834 E42.50129
G1 X100.971 Y196.695 E42.51013
G1 X100.759 Y196.513 E42.51944
G1 X100.577 Y196.301 E42.52874
G1 X100.438 Y196.075 E42.53758
G1 X100.331 Y195.816 E42.54692
G1 X100.267 Y195.551 E42.556
G1 X100.245 Y195.27 E42.56539
G1 X100.245 Y84.73 E46.24751
G1 X100.267 Y84.449 E46.2569
G1 X100.331 Y84.184 E46.26598
G1 X100.438 Y83.925 E46.27532
G1 X100.577 Y83.699 E46.28416
G1 X100.759 Y83.487 E46.29346
G1 X100.971 Y83.305 E46.30277
G1 X101.197 Y83.166 E46.31161
G1 X101.456 Y83.059 E46.32094
G1 X101.721 Y82.995 E46.33002
G1 X102.002 Y82.973 E46.33941
G1 X104.338 Y82.973 E46.41723
G1 X104.619 Y82.995 E46.42662
G1 X104.884 Y83.059 E46.4357
G1 X105.143 Y83.166 E46.44503
G1 X105.369 Y83.305 E46.45387
G1 X105.581 Y83.487 E46.46318
G1 X105.763 Y83.699 E46.47248
G1 X105.902 Y83.925 E46.48132
G1 X106.009 Y84.184 E46.49066
G1 X106.072 Y84.449 E46.49973
G1 X106.095 Y84.783 E46.51088
G1 X106.095 Y188.937 E49.98029
G1 X106.122 Y189.279 E49.99172
G1 X106.204 Y189.622 E50.00346
G1 X106.34 Y189.949 E50.01526
G1 X106.524 Y190.251 E50.02704
G1 X106.754 Y190.518 E50.03878
G1 X107.021 Y190.748 E50.05052
G0 F2625 X107.234 Y190.878
G0 X106.922 Y191.389
G0 X106.873 Y191.818
;TYPE:SKIN
G1 F900 X107.344 Y192.013 E50.0675
G1 X107.839 Y192.131 E50.08445
G1 X108.296 Y192.167 E50.09972
G1 X177.972 Y192.167 E52.42065
G1 X178.12 Y192.179 E52.4256
G1 X178.238 Y192.207 E52.42964
G1 X178.346 Y192.252 E52.43353
G1 X178.446 Y192.313 E52.43744
G1 X178.539 Y192.393 E52.44152
G1 X178.619 Y192.486 E52.44561
G1 X178.68 Y192.586 E52.44951
G1 X178.725 Y192.694 E52.45341
G1 X178.753 Y192.812 E52.45745
G1 X178.765 Y192.954 E52.4622
G1 X178.765 Y195.25 E52.53868
G1 X178.753 Y195.392 E52.54342
G1 X178.725 Y195.51 E52.54746
G1 X178.68 Y195.618 E52.55136
G1 X178.619 Y195.718 E52.55526
G1 X178.539 Y195.811 E52.55935
G1 X178.446 Y195.891 E52.56343
G1 X178.347 Y195.952 E52.56731
G1 X178.238 Y195.996 E52.57122
G1 X178.124 Y196.025 E52.57514
G1 X177.931 Y196.037 E52.58158
G1 X102.028 Y196.037 E55.10994
G1 X101.88 Y196.025 E55.11489
G1 X101.762 Y195.997 E55.11892
G1 X101.654 Y195.952 E55.12282
G1 X101.554 Y195.891 E55.12672
G1 X101.461 Y195.811 E55.13081
G1 X101.381 Y195.718 E55.1349
G1 X101.32 Y195.618 E55.1388
G1 X101.275 Y195.51 E55.1427
G1 X101.247 Y195.392 E55.14674
G1 X101.235 Y195.25 E55.15148
G1 X101.235 Y84.75 E58.83228
G1 X101.247 Y84.608 E58.83702
G1 X101.275 Y84.49 E58.84106
G1 X101.32 Y84.382 E58.84496
G1 X101.381 Y84.282 E58.84886
G1 X101.461 Y84.189 E58.85295
G1 X101.554 Y84.109 E58.85704
G1 X101.654 Y84.048 E58.86094
G1 X101.762 Y84.003 E58.86484
G1 X101.88 Y83.975 E58.86888
G1 X102.028 Y83.963 E58.87382
G1 X104.312 Y83.963 E58.9499
G1 X104.46 Y83.975 E58.95485
G1 X104.578 Y84.003 E58.95889
G1 X104.686 Y84.048 E58.96279
G1 X104.786 Y84.109 E58.96669
G1 X104.879 Y84.189 E58.97077
G1 X104.957 Y84.28 E58.97477
G1 X105.022 Y84.385 E58.97888
G1 X105.064 Y84.487 E58.98255
G1 X105.092 Y84.601 E58.98646
G1 X105.105 Y84.802 E58.99317
G1 X105.105 Y188.976 E62.46325
G1 X105.141 Y189.433 E62.47852
G1 X105.259 Y189.928 E62.49547
G1 X105.454 Y190.399 E62.51245
G1 X105.72 Y190.835 E62.52946
G1 X106.052 Y191.22 E62.5464
G1 X106.437 Y191.552 E62.56333
G1 X106.873 Y191.818 E62.58034
G0 F2625 X102.473 Y195.811
G1 F900 X101.459 Y194.798 E62.62809
G0 F2625 X101.459 Y194.09
G1 F900 X103.18 Y195.811 E62.70916
G0 F2625 X103.887 Y195.811
G1 F900 X101.459 Y193.383 E62.82354
G0 F2625 X101.459 Y192.676
G1 F900 X104.594 Y195.811 E62.97122
G0 F2625 X105.301 Y195.811
G1 F900 X101.459 Y191.969 E63.15221
G0 F2625 X101.459 Y191.262
G1 F900 X106.008 Y195.811 E63.3665
G0 F2625 X106.715 Y195.811
G1 F900 X101.459 Y190.555 E63.6141
G0 F2625 X101.459 Y189.848
G1 F900 X107.422 Y195.811 E63.89501
G0 F2625 X108.13 Y195.811
G1 F900 X101.459 Y189.141 E64.20924
G0 F2625 X101.459 Y188.434
G1 F900 X108.837 Y195.811 E64.55678
G0 F2625 X109.544 Y195.811
G1 F900 X101.459 Y187.726 E64.93765
G0 F2625 X101.459 Y187.019
G1 F900 X110.251 Y195.811 E65.35182
G0 F2625 X110.958 Y195.811
G1 F900 X107.406 Y192.259 E65.51915
G0 F2625 X108.241 Y192.387
G1 F900 X111.665 Y195.811 E65.68045
G0 F2625 X112.372 Y195.811
G1 F900 X108.952 Y192.391 E65.84156
G0 F2625 X109.659 Y192.391
G1 F900 X113.079 Y195.811 E66.00267
G0 F2625 X113.786 Y195.811
G1 F900 X110.366 Y192.391 E66.16377
G0 F2625 X111.073 Y192.391
